X: 20501
M: 2/4
L: 1/16
K: C
d4 G3 G | d3 e d2 B2 | G2 d2 d3 G |
d3 e f2 d2 | e4 d3 d | c3 d (ce) (dc) |
c2 A2 HB2 zd | (ec) (Ac) d2 ^F2 | G4 G3 d |
^G e3 z2 e2 | =f2 d2 e2 c2 | d2 B2 Hc2 zA | E2 A2 (cB) (A^G) |
a4 Hf3 f | g2 e2 f2 d2 | e2 c2 Hg2 zc | (Ad) (fe) (gf) (ed) |
d4 c3 e | f2d'2e2c'2 | d2b2 c'2zc | Adfd gfed | d4 c2 "_Da Capo"|]




